svg/media/repeat_one_line.svg

<?xml version="1.0" encoding="UTF-8"?>
<svg width="24px" height="24px" viewBox="0 0 24 24" version="1.1" xmlns="http://www.w3.org/2000/svg" xmlns:xlink="http://www.w3.org/1999/xlink">
    <title>repeat_one_line</title>
    <g id="Icon" stroke="none" stroke-width="1" fill="none" fill-rule="evenodd">
        <g id="Media" transform="translate(-48.000000, -96.000000)" fill-rule="nonzero">
            <g id="repeat_one_line" transform="translate(48.000000, 96.000000)">
                <path d="M0,0 L0,24 L24,24 L24,0 L0,0 Z M11.4065,23.2578 L11.4181,23.2595 L11.4891,23.295 L11.5081,23.2987 L11.5233,23.295 L11.5943,23.2595 C11.6042,23.2564 11.613,23.259 11.6179,23.2649 L11.622,23.2758 L11.6391,23.7031 L11.6341,23.7235 L11.6231,23.7357 L11.5195,23.8097 L11.5047,23.8136 L11.4929,23.8097 L11.3893,23.7357 L11.3767,23.7197 L11.3733,23.7031 L11.3904,23.2758 C11.3924,23.2657 11.399,23.2593 11.4065,23.2578 Z M11.1416,23.1453 L11.1555,23.1473 L11.3402,23.2397 L11.3501,23.2499 L11.3528,23.2611 L11.3349,23.6906 L11.3301,23.7034 L11.3216,23.7105 L11.1207,23.8032 C11.1086,23.8069 11.0978,23.803 11.0922,23.7952 L11.0882,23.7812 L11.1223,23.1665 C11.1247,23.1546 11.1326,23.147 11.1416,23.1453 Z M11.857,23.1473 C11.8668,23.1424 11.8778,23.1453 11.8844,23.1526 L11.8901,23.1665 L11.9242,23.7812 C11.9249,23.7927 11.9172,23.8019 11.9074,23.8046 L11.8917,23.8032 L11.6908,23.7105 L11.6814,23.7024 L11.6775,23.6906 L11.6596,23.2611 L11.6628,23.2485 L11.6722,23.2397 L11.857,23.1473 Z" id="MingCute"></path>
                <path d="M15.9468,3.06597 C15.9739,2.72042 16.2988,2.50915 16.5784,2.65537 L16.8843359,2.81961469 L16.8843359,2.81961469 L17.2441125,3.02306 C17.3082219,3.06026563 17.3743195,3.09912813 17.4422779,3.13965926 L17.8713369,3.40296371 C17.9462281,3.45021641 18.022725,3.49916125 18.1007,3.54981 L18.5642531,3.85984438 C18.6368234,3.90981938 18.707007,3.95884516 18.7747402,4.00677094 L19.1512254,4.27991938 L19.1512254,4.27991938 L19.4658449,4.51943031 C19.5129562,4.55614359 19.5573625,4.59115375 19.599,4.62431 C19.8348,4.81202 19.8243,5.1899 19.5764,5.38622 L19.2964094,5.6030625 L19.2964094,5.6030625 L18.9555,5.8554175 L18.9555,5.8554175 L18.5559406,6.13701125 L18.5559406,6.13701125 L18.1,6.44157 L18.1,6.44157 L17.6379797,6.73325781 L17.6379797,6.73325781 L17.2217375,6.981575 L17.2217375,6.981575 L16.8572266,7.18744219 L16.8572266,7.18744219 L16.5504,7.35178 L16.5504,7.35178 C16.275,7.49534 15.9785,7.31614 15.9521,6.99217 L15.9266136,6.6445908 L15.9266136,6.6445908 L15.9032968,6.230426 L15.9032968,6.230426 L15.8934,6 L7,6 C5.94563773,6 5.08183483,6.81587733 5.00548573,7.85073759 L5,8 L5,16 C5,17.0543909 5.81587733,17.9181678 6.85073759,17.9945144 L7,18 L17,18 C18.0543909,18 18.9181678,17.18415 18.9945144,16.1492661 L19,16 L19,11 C19,10.4477 19.4477,10 20,10 C20.51285,10 20.9355092,10.386027 20.9932725,10.8833761 L21,11 L21,16 C21,18.1421576 19.3159949,19.8910766 17.199637,19.9951046 L17,20 L7,20 C4.85780364,20 3.10892107,18.3159949 3.0048953,16.199637 L3,16 L3,8 C3,5.85780364 4.68396753,4.10892107 6.80035957,4.0048953 L7,4 L15.8931,4 L15.9123768,3.5851728 L15.9123768,3.5851728 L15.9349944,3.2246144 C15.938908,3.169272 15.94286,3.116362 15.9468,3.06597 Z M13,10.0187 L13,15 C13,15.5523 12.5523,16 12,16 C11.4477,16 11,15.5523 11,15 L11,11.8661 C10.547,12.1282 9.96231,11.9962 9.66795,11.5547 C9.3616,11.0952 9.48577,10.4743 9.9453,10.1679 L11.4298,9.17831 C12.1009,8.73085 13,9.21199 13,10.0187 Z" id="形状" fill="#09244B"></path>
            </g>
        </g>
    </g>
</svg>

<svg xmlns="http://www.w3.org/2000/svg" width="24" height="24"><g fill="none" fill-rule="nonzero"><path d="M0 0v24h24V0H0Zm11.407 23.258.011.002.071.035.02.004.014-.004.071-.036c.01-.003.019 0 .024.006l.004.01.017.428-.005.02-.01.013-.104.074-.015.004-.012-.004-.104-.074-.012-.016-.004-.017.017-.427c.002-.01.009-.017.016-.018Zm-.265-.113.014.002.184.093.01.01.003.011-.018.43-.005.012-.008.008-.201.092c-.012.004-.023 0-.029-.008l-.004-.014.034-.614c.003-.012.01-.02.02-.022Zm.715.002a.023.023 0 0 1 .027.006l.006.014.034.614c0 .012-.007.02-.017.024l-.015-.002-.201-.093-.01-.008-.003-.011-.018-.43.003-.012.01-.01.184-.092Z"/><path fill="#09244B" d="M15.947 3.066c.027-.346.352-.557.631-.41l.306.164.36.203.198.117.43.263.229.147.463.31.21.147.377.273.315.24.133.104c.236.188.225.566-.023.762l-.28.217-.34.252-.4.282-.456.305-.462.291-.416.249-.365.205-.307.165c-.275.143-.572-.036-.598-.36l-.025-.347-.024-.415-.01-.23H7a2 2 0 0 0-1.995 1.85L5 8v8a2 2 0 0 0 1.85 1.995L7 18h10a2 2 0 0 0 1.995-1.85L19 16v-5a1 1 0 0 1 1.993-.117L21 11v5a4 4 0 0 1-3.8 3.995L17 20H7a4 4 0 0 1-3.995-3.8L3 16V8a4 4 0 0 1 3.8-3.995L7 4h8.893l.02-.415.022-.36.012-.159ZM13 10.019V15a1 1 0 1 1-2 0v-3.134a1 1 0 0 1-1.055-1.698l1.485-.99a1.01 1.01 0 0 1 1.57.84Z"/></g></svg>
